public/images/hashed/23e6ca479d714d0998c3e887d20a18d0.svg

<svg xmlns="http://www.w3.org/2000/svg" width="80" height="80"><defs><linearGradient id="a" x1="0%" x2="100%" y1="100%" y2="0%"><stop offset="0%" stop-color="#BD0816"/><stop offset="100%" stop-color="#FF5252"/></linearGradient></defs><g fill="none" fill-rule="evenodd"><path fill="url(#a)" d="M0 0h80v80H0z"/><path fill="#FFF" d="M35.694 39.281a1 1 0 0 1 .283.932l-1.025 4.709 4.525-2.774a.995.995 0 0 1 1.047.001l4.492 2.767-.995-4.717c-.07-.335.035-.682.279-.921l4.039-3.954-5.266-.76a1.004 1.004 0 0 1-.756-.551l-2.326-4.762-2.381 4.774a.996.996 0 0 1-.75.543l-5.251.767 4.085 3.946Zm-3.195 7.506 1.405-6.455-5.148-4.973a1 1 0 0 1 .549-1.708l6.748-.987 3.052-6.119c.169-.34.489-.574.899-.554.38.002.727.22.894.561l2.984 6.108 6.744.975a.997.997 0 0 1 .807.679.997.997 0 0 1-.251 1.025l-5.091 4.984 1.363 6.46a1 1 0 0 1-1.503 1.059l-5.952-3.668-6 3.678a.994.994 0 0 1-1.102-.037 1.002 1.002 0 0 1-.398-1.028ZM14 21.021h52V16H14v5.021ZM68 15v50a1 1 0 0 1-1 1h-6v-2h5V23.022H14V64h38v2H13a1 1 0 0 1-1-1V15a1 1 0 0 1 1-1h54a1 1 0 0 1 1 1ZM24 59h6v-2h-6v2Zm10 0h14v-2H34v2Zm-10-5h6v-2h-6v2Zm10 0h22v-2H34v2Z"/></g></svg>

<?xml version="1.0" encoding="UTF-8"?>
<svg width="80px" height="80px" viewBox="0 0 80 80" version="1.1" xmlns="http://www.w3.org/2000/svg" xmlns:xlink="http://www.w3.org/1999/xlink">
    <!-- Generator: Sketch 64 (93537) - https://sketch.com -->
    <title>Icon-Architecture/64/Arch_AWS-Certificate-Manager_64</title>
    <desc>Created with Sketch.</desc>
    <defs>
        <linearGradient x1="0%" y1="100%" x2="100%" y2="0%" id="linearGradient-1">
            <stop stop-color="#BD0816" offset="0%"></stop>
            <stop stop-color="#FF5252" offset="100%"></stop>
        </linearGradient>
    </defs>
    <g id="Icon-Architecture/64/Arch_AWS-Certificate-Manager_64" stroke="none" stroke-width="1" fill="none" fill-rule="evenodd">
        <g id="Icon-Architecture-BG/64/Security-Identity-Compliance" fill="url(#linearGradient-1)">
            <rect id="Rectangle" x="0" y="0" width="80" height="80"></rect>
        </g>
        <path d="M35.694,39.281 C35.944,39.522 36.05,39.874 35.977,40.213 L34.952,44.922 L39.477,42.148 C39.798,41.95 40.202,41.95 40.524,42.149 L45.016,44.916 L44.021,40.199 C43.951,39.864 44.056,39.517 44.3,39.278 L48.339,35.324 L43.073,34.564 C42.745,34.516 42.463,34.31 42.317,34.013 L39.991,29.251 L37.61,34.025 C37.465,34.318 37.184,34.521 36.86,34.568 L31.609,35.335 L35.694,39.281 Z M32.499,46.787 L33.904,40.332 L28.756,35.359 C28.481,35.094 28.382,34.697 28.498,34.333 C28.615,33.97 28.928,33.705 29.305,33.651 L36.053,32.664 L39.105,26.545 C39.274,26.205 39.594,25.971 40.004,25.991 C40.384,25.993 40.731,26.211 40.898,26.552 L43.882,32.66 L50.626,33.635 C51.003,33.689 51.315,33.952 51.433,34.314 C51.551,34.676 51.455,35.073 51.182,35.339 L46.091,40.323 L47.454,46.783 C47.536,47.175 47.378,47.578 47.05,47.808 C46.724,48.038 46.292,48.051 45.951,47.842 L39.999,44.174 L33.999,47.852 C33.839,47.951 33.657,48 33.476,48 C33.273,48 33.07,47.938 32.897,47.815 C32.571,47.583 32.414,47.178 32.499,46.787 L32.499,46.787 Z M14,21.021 L66,21.021 L66,16 L14,16 L14,21.021 Z M68,15 L68,65 C68,65.552 67.552,66 67,66 L61,66 L61,64 L66,64 L66,23.022 L14,23.022 L14,64 L52,64 L52,66 L13,66 C12.447,66 12,65.552 12,65 L12,15 C12,14.448 12.447,14 13,14 L67,14 C67.552,14 68,14.448 68,15 L68,15 Z M24,59 L30,59 L30,57 L24,57 L24,59 Z M34,59 L48,59 L48,57 L34,57 L34,59 Z M24,54 L30,54 L30,52 L24,52 L24,54 Z M34,54 L56,54 L56,52 L34,52 L34,54 Z" id="AWS-Certificate-Manager_Icon_64_Squid" fill="#FFFFFF"></path>
    </g>
</svg>
